X:1
T:Title
%%score { 1 | 2 }
L:1/8
Q:1/4=76
M:2/4
K:C
V:1 treble nm="Grand Piano"
V:2 bass 
V:1
 [EG][FA] [EG][Ec] | [Ge][Fd] [Ec]2 | [FA][FA] [Ac][FA] | [EG][CE] [EG]2 | [EG][FA] [EG][Ec] | %5
w: R.~M.~McIntoch * * *|||||
 [Ge][Fd] [Ec]2 | dd cB | [Ec]4 | [Ge]2 [Ec]>[Fd] | [Ge]2 .[EG]2 | [FA][FA] [Ac][FA] | %11
w: ||||||
 [EG][CE] [EG][EG] | [Gc]2 d>d | e2 .c2 | .d2 c>B | [Ec]4 |] %16
w: |||||
V:2
 [C,C][C,C] [C,C][C,C] | [C,C][C,B,] [C,C]2 | [F,C][F,C] [F,C][F,C] | [C,C][C,G,] [C,G,]2 | %4
 [C,C][C,C] [C,C][C,C] | [C,C][C,B,] [C,C]2 | [F,A,F][F,A,F] [G,E][G,D] | [C,G,]4 | %8
 [C,C]2 [C,C]>[C,C] | [C,C]2 .[C,C]2 | [F,C][F,C] [F,C][F,C] | [C,C][C,G,] [C,C][C,C] | %12
 [E,C]2[K:treble] [G,B,G]>[G,B,G] | [CG]2 .[CE]2 | .[F,A,F]2[K:bass] [G,E]>[G,D] | [C,G,]4 |] %16

